X: 847
T: Gittin de Bıraktın Beni
C: Münir Nurettin Selçuk
O: Turkey
F: http://compmusic.upf.edu/node/140
N: hicaz--sarki--yuruksemai--gittin_de_biraktin--munir_nurettin_selcuk
N: makam= hicaz
N: form= sarki
N: usul= yuruksemai = 6/8
M: 6/8
L: 1/16
K: C _7/8B ^f ^c 
Q: 1/4=132
%%MIDI tuningsystem comma53
A6A2 {B}A2G2  | A2B2 c2BA B3A  | A2B2 d2c2 B2BA  | \
w:  Git tin  |  de *  bı rak  |  tın *  *  *  *  be  | 
{B}A6zA Bcd2  | 
w:  *  ni SAZ  | 
d4 c2e4dc  | {d}c4 B2d4cB  | A2g2 =f2e2 d2dc  | \
w:  ay *  lar  |   |  ca *  ke der  | 
d6c2 B2A2  | 
w:  de SAZ  | 
A6A2 {B}A2G2  | A2B2 c2BA B3A  | A2B2 d2c2 B2BA  | \
w:  Git tin  |  de *  bı rak  |  tın *  *  *  *  be  | 
{B}A6zA Bcd2  | 
w:  *  ni SAZ  | 
d4 c2e4dc  | {d}c4 B2d4cB  | A2g2 =f2e2 d2dc  | \
w:  ay *  lar  |   |  ca *  ke der  | 
d6zA Bcd2  | 
w:  de SAZ  | 
d6a2 g2^2/4f2  | efe2 f2g2 a2=b2  | g2f2 a2g2 =f2fe  | \
w:  Meh tab_  |  o *  *  lu yor  |  dun *  *  *  *  ba  | 
e6zg fge2  | 
w:  na SAZ  | 
d6a2 g2^2/4f2  | e2^2/4f2 g2ag =fed2  | \
w:  ıs sız  |   | 
e2=f2 {g}feed cedc  | 
w:  ge ce *  *  *  ler  | 
{d}c6d3/2c/ Bcd2  | d4 c2e4dc  | c4 d2dc BAB2  | \
w:  *  de SAZ  |  Meh *  tab_  |  o lu yor  | 
A2B2 d2c2 B2BA  | 
w:  dun *  *  *  *  ba  | 
{B}A6B3/2A/ B2z2  | G4 A2A4a2  | g2=f2 e2dc BAB2  | \
w:  *  na SAZ  |  ıs *  sız  |   | 
A2B2 d2dc B2BA  | 
w:  ge ce *  ler  | 
{B}A4 z2a3/2^g/ .=f.g.a2  | a6a4=b2  | \
w:  *  de SAZ  |  Der man_  | 
=c'=ba2 a^ga6  | =b2a2 ^g2ag =f2ed  | 
w:  o *  *  lur *  an  |  cak *  *  dö *  nü  | 
{e}e6=f4z2  | d2c2 d2e2 d2e2  | =f2^g2 a2ag fga2  | \
w:  *  şün  |  biz  |   | 
a2=b4=c'_1/4b a2a^g  | 
w:  de ki der  | 
a6a3/2^g/ .=f.g.a2  | a4 g2=b4ag  | g4 a2ag fef2  | \
w:  de SAZ  |  Der *  man_  |  o lur an  | 
e2f2 a2ag =f2fe  | 
w:  cak *  *  dö *  *  nü  | 
e6ag =fed2  | d4 c2e4dc  | {d}c4 B2{e}d4cB  | \
w:  şün  |  biz  |   | 
A2g2 =f2e2 d2dc  | 
w:  de *  ki  der  | 
d6zA Bcd2  | d6a2 g2^2/4f2  | efe2 f2g2 a2=b2  | \
w:  de SAZ  |  Meh tab_  |  o *  *  lu yor  | 
g2f2 a2g2 =f2fe  | 
w:  dun *  *  *  *  ba  | 
e6zg fge2  | d6a2 g2^2/4f2  | e2^2/4f2 g2ag =fed2  | \
w:  na SAZ  |  ıs sız  |   | 
e2=f2 {g}feed cedc  | 
w:  ge ce *  *  *  ler  | 
{d}c6d3/2c/ Bcd2  | d4 c2e4dc  | c4 d2dc BAB2  | \
w:  *  de SAZ  |  Meh *  tab_  |  o lu yor  | 
A2B2 d2c2 B2BA  | 
w:  dun *  *  *  *  ba  | 
{B}A6B3/2A/ B2z2  | G4 A2A4a2  | g2=f2 e2dc BAB2  | \
w:  *  na SAZ  |  ıs *  sız  |   | 
A2B2 d2dc B2BA  | 
w:  ge ce *  ler  | 
{B}A4 z2|
w:  *  de  | 


